apps/portfolio/src/app/icon.svg

<svg width="100" height="100" viewBox="0 0 100 100" fill="none" xmlns="http://www.w3.org/2000/svg">
<g clip-path="url(#clip0_1_11)">
<mask id="path-1-outside-1_1_11" maskUnits="userSpaceOnUse" x="19" y="13" width="71" height="78" fill="black">
<rect fill="white" x="19" y="13" width="71" height="78"/>
<path d="M32.2137 89.6C27.747 89.6 24.5803 88.3333 22.7137 85.8C20.9137 83.2 20.0137 79.3 20.0137 74.1C20.0137 70.7667 20.547 65.7667 21.6137 59.1C22.747 52.3667 24.3137 43.4667 26.3137 32.4L21.0137 21.7C24.147 19.7 27.4803 18 31.0137 16.6C34.547 15.1333 38.0803 14.4 41.6137 14.4C44.747 14.4 46.8137 15.3333 47.8137 17.2C48.8137 19.0667 49.3137 21.2667 49.3137 23.8C49.3137 24.9333 49.0803 26.8 48.6137 29.4C48.2137 31.9333 47.6803 34.8667 47.0137 38.2C46.4137 41.5333 45.7803 44.9333 45.1137 48.4L49.8137 44.5C53.8137 41.1667 57.247 37.7333 60.1137 34.2C62.9803 30.6667 64.4137 27.1667 64.4137 23.7C64.4137 21.9667 64.147 20.4 63.6137 19C68.547 16 73.2137 14.5 77.6137 14.5C81.147 14.5 83.647 15.4333 85.1137 17.3C86.647 19.1 87.4137 21.5 87.4137 24.5C87.4137 27.7667 85.8803 31.3333 82.8137 35.2C79.8137 39.0667 74.7137 43.0667 67.5137 47.2C68.647 50.8 69.9137 54.5 71.3137 58.3C72.7803 62.0333 74.3803 65.6 76.1137 69C77.847 72.4 79.6803 75.4333 81.6137 78.1C83.547 80.7 85.547 82.6667 87.6137 84C86.6803 85 85.347 85.9333 83.6137 86.8C81.947 87.6 80.1803 88.2333 78.3137 88.7C76.5137 89.2333 74.847 89.5 73.3137 89.5C70.447 89.5 67.9137 89.0333 65.7137 88.1C63.5137 87.1667 61.547 85.5333 59.8137 83.2C58.147 80.8 56.547 77.4333 55.0137 73.1L49.2137 56.8L43.0137 60.1C42.6137 62.4333 42.2803 64.5333 42.0137 66.4C41.747 68.2 41.6137 69.6 41.6137 70.6C41.6137 74 41.847 76.8667 42.3137 79.2C42.847 81.5333 43.6137 83.5 44.6137 85.1C40.6137 88.1 36.4803 89.6 32.2137 89.6Z"/>
</mask>
<path d="M32.2137 89.6C27.747 89.6 24.5803 88.3333 22.7137 85.8C20.9137 83.2 20.0137 79.3 20.0137 74.1C20.0137 70.7667 20.547 65.7667 21.6137 59.1C22.747 52.3667 24.3137 43.4667 26.3137 32.4L21.0137 21.7C24.147 19.7 27.4803 18 31.0137 16.6C34.547 15.1333 38.0803 14.4 41.6137 14.4C44.747 14.4 46.8137 15.3333 47.8137 17.2C48.8137 19.0667 49.3137 21.2667 49.3137 23.8C49.3137 24.9333 49.0803 26.8 48.6137 29.4C48.2137 31.9333 47.6803 34.8667 47.0137 38.2C46.4137 41.5333 45.7803 44.9333 45.1137 48.4L49.8137 44.5C53.8137 41.1667 57.247 37.7333 60.1137 34.2C62.9803 30.6667 64.4137 27.1667 64.4137 23.7C64.4137 21.9667 64.147 20.4 63.6137 19C68.547 16 73.2137 14.5 77.6137 14.5C81.147 14.5 83.647 15.4333 85.1137 17.3C86.647 19.1 87.4137 21.5 87.4137 24.5C87.4137 27.7667 85.8803 31.3333 82.8137 35.2C79.8137 39.0667 74.7137 43.0667 67.5137 47.2C68.647 50.8 69.9137 54.5 71.3137 58.3C72.7803 62.0333 74.3803 65.6 76.1137 69C77.847 72.4 79.6803 75.4333 81.6137 78.1C83.547 80.7 85.547 82.6667 87.6137 84C86.6803 85 85.347 85.9333 83.6137 86.8C81.947 87.6 80.1803 88.2333 78.3137 88.7C76.5137 89.2333 74.847 89.5 73.3137 89.5C70.447 89.5 67.9137 89.0333 65.7137 88.1C63.5137 87.1667 61.547 85.5333 59.8137 83.2C58.147 80.8 56.547 77.4333 55.0137 73.1L49.2137 56.8L43.0137 60.1C42.6137 62.4333 42.2803 64.5333 42.0137 66.4C41.747 68.2 41.6137 69.6 41.6137 70.6C41.6137 74 41.847 76.8667 42.3137 79.2C42.847 81.5333 43.6137 83.5 44.6137 85.1C40.6137 88.1 36.4803 89.6 32.2137 89.6Z" fill="#264DB1"/>
<path d="M22.7137 85.8L21.8915 86.3692L21.8999 86.3813L21.9086 86.3932L22.7137 85.8ZM21.6137 59.1L20.6275 58.934L20.6262 58.942L21.6137 59.1ZM26.3137 32.4L27.2977 32.5778L27.3565 32.2524L27.2098 31.9561L26.3137 32.4ZM21.0137 21.7L20.4756 20.8571L19.7193 21.3398L20.1176 22.1439L21.0137 21.7ZM31.0137 16.6L31.382 17.5297L31.3896 17.5267L31.397 17.5236L31.0137 16.6ZM47.8137 17.2L48.6952 16.7278L48.6952 16.7278L47.8137 17.2ZM48.6137 29.4L47.6294 29.2233L47.6275 29.2337L47.6259 29.244L48.6137 29.4ZM47.0137 38.2L46.0331 38.0039L46.0312 38.0133L46.0295 38.0228L47.0137 38.2ZM45.1137 48.4L44.1317 48.2112L43.6047 50.9516L45.7522 49.1696L45.1137 48.4ZM49.8137 44.5L50.4522 45.2696L50.4539 45.2682L49.8137 44.5ZM60.1137 34.2L60.8902 34.83L60.8902 34.83L60.1137 34.2ZM63.6137 19L63.0941 18.1456L62.3828 18.5781L62.6792 19.356L63.6137 19ZM85.1137 17.3L84.3274 17.9178L84.3396 17.9334L84.3524 17.9485L85.1137 17.3ZM82.8137 35.2L82.0301 34.5786L82.0236 34.587L82.8137 35.2ZM67.5137 47.2L67.0158 46.3327L66.3183 46.7332L66.5598 47.5003L67.5137 47.2ZM71.3137 58.3L70.3753 58.6457L70.379 58.6557L70.3829 58.6657L71.3137 58.3ZM76.1137 69L77.0046 68.5458L77.0046 68.5458L76.1137 69ZM81.6137 78.1L80.804 78.687L80.8112 78.6967L81.6137 78.1ZM87.6137 84L88.3447 84.6823L89.1607 83.808L88.1558 83.1597L87.6137 84ZM83.6137 86.8L84.0464 87.7015L84.0537 87.698L84.0609 87.6944L83.6137 86.8ZM78.3137 88.7L78.0711 87.7299L78.0502 87.7351L78.0296 87.7412L78.3137 88.7ZM65.7137 88.1L65.3231 89.0206L65.3231 89.0206L65.7137 88.1ZM59.8137 83.2L58.9923 83.7704L59.0014 83.7835L59.0109 83.7963L59.8137 83.2ZM55.0137 73.1L55.9564 72.7664L55.9558 72.7648L55.0137 73.1ZM49.2137 56.8L50.1558 56.4648L49.7672 55.3726L48.7438 55.9173L49.2137 56.8ZM43.0137 60.1L42.5438 59.2173L42.1109 59.4477L42.0281 59.931L43.0137 60.1ZM42.0137 66.4L43.0029 66.5465L43.0036 66.5414L42.0137 66.4ZM42.3137 79.2L41.3331 79.3961L41.3358 79.4095L41.3388 79.4228L42.3137 79.2ZM44.6137 85.1L45.2137 85.9L45.9485 85.3489L45.4617 84.57L44.6137 85.1ZM32.2137 88.6C27.9231 88.6 25.1263 87.3885 23.5187 85.2068L21.9086 86.3932C24.0344 89.2782 27.5709 90.6 32.2137 90.6V88.6ZM23.5359 85.2308C21.9047 82.8746 21.0137 79.2155 21.0137 74.1H19.0137C19.0137 79.3845 19.9227 83.5254 21.8915 86.3692L23.5359 85.2308ZM21.0137 74.1C21.0137 70.8495 21.5361 65.914 22.6011 59.258L20.6262 58.942C19.5579 65.6193 19.0137 70.6838 19.0137 74.1H21.0137ZM22.5998 59.266C23.7322 52.5383 25.2981 43.6427 27.2977 32.5778L25.3296 32.2222C23.3293 43.2906 21.7618 52.195 20.6275 58.934L22.5998 59.266ZM27.2098 31.9561L21.9098 21.2561L20.1176 22.1439L25.4176 32.8439L27.2098 31.9561ZM21.5517 22.5429C24.6302 20.5779 27.9066 18.9068 31.382 17.5297L30.6453 15.6703C27.0541 17.0932 23.6638 18.8221 20.4756 20.8571L21.5517 22.5429ZM31.397 17.5236C34.819 16.1032 38.2225 15.4 41.6137 15.4V13.4C37.9382 13.4 34.275 14.1635 30.6303 15.6764L31.397 17.5236ZM41.6137 15.4C44.5744 15.4 46.1826 16.2729 46.9322 17.6722L48.6952 16.7278C47.4448 14.3938 44.9196 13.4 41.6137 13.4V15.4ZM46.9322 17.6722C47.8405 19.3677 48.3137 21.3992 48.3137 23.8H50.3137C50.3137 21.1341 49.7869 18.7656 48.6952 16.7278L46.9322 17.6722ZM48.3137 23.8C48.3137 24.836 48.0957 26.6254 47.6294 29.2233L49.5979 29.5767C50.065 26.9745 50.3137 25.0307 50.3137 23.8H48.3137ZM47.6259 29.244C47.2286 31.7604 46.6979 34.6799 46.0331 38.0039L47.9943 38.3961C48.6628 35.0534 49.1988 32.1062 49.6014 29.556L47.6259 29.244ZM46.0295 38.0228C45.4302 41.3521 44.7976 44.7482 44.1317 48.2112L46.0957 48.5888C46.7631 45.1184 47.3971 41.7145 47.9979 38.3771L46.0295 38.0228ZM45.7522 49.1696L50.4522 45.2696L49.1751 43.7304L44.4751 47.6304L45.7522 49.1696ZM50.4539 45.2682C54.4967 41.8992 57.9773 38.4203 60.8902 34.83L59.3371 33.57C56.5167 37.0463 53.1306 40.4342 49.1735 43.7318L50.4539 45.2682ZM60.8902 34.83C63.8559 31.1747 65.4137 27.4592 65.4137 23.7H63.4137C63.4137 26.8741 62.1048 30.1586 59.3371 33.57L60.8902 34.83ZM65.4137 23.7C65.4137 21.8638 65.131 20.174 64.5482 18.644L62.6792 19.356C63.163 20.626 63.4137 22.0695 63.4137 23.7H65.4137ZM64.1333 19.8544C68.9578 16.9206 73.4458 15.5 77.6137 15.5V13.5C72.9816 13.5 68.1363 15.0794 63.0941 18.1456L64.1333 19.8544ZM77.6137 15.5C80.9947 15.5 83.1287 16.3923 84.3274 17.9178L85.9 16.6822C84.1653 14.4744 81.2993 13.5 77.6137 13.5V15.5ZM84.3524 17.9485C85.6939 19.5232 86.4137 21.6721 86.4137 24.5H88.4137C88.4137 21.3279 87.6001 18.6768 85.8749 16.6515L84.3524 17.9485ZM86.4137 24.5C86.4137 27.4514 85.025 30.8026 82.0302 34.5786L83.5972 35.8214C86.7357 31.8641 88.4137 28.082 88.4137 24.5H86.4137ZM82.0236 34.587C79.1404 38.3031 74.1705 42.2254 67.0158 46.3327L68.0115 48.0672C75.2568 43.9079 80.4869 39.8303 83.6038 35.813L82.0236 34.587ZM66.5598 47.5003C67.6983 51.1166 68.9702 54.8318 70.3753 58.6457L72.252 57.9543C70.8572 54.1682 69.5957 50.4834 68.4675 46.8997L66.5598 47.5003ZM70.3829 58.6657C71.8608 62.4276 73.474 66.0239 75.2228 69.4542L77.0046 68.5458C75.2867 65.1761 73.6998 61.6391 72.2444 57.9343L70.3829 58.6657ZM75.2228 69.4542C76.9761 72.8934 78.8359 75.9722 80.8041 78.687L82.4233 77.513C80.5248 74.8944 78.7179 71.9066 77.0046 68.5458L75.2228 69.4542ZM80.8112 78.6967C82.7946 81.364 84.8779 83.425 87.0716 84.8403L88.1558 83.1597C86.2161 81.9083 84.2994 80.036 82.4161 77.5033L80.8112 78.6967ZM86.8826 83.3177C86.0567 84.2026 84.8341 85.0717 83.1665 85.9056L84.0609 87.6944C85.8599 86.7949 87.304 85.7974 88.3447 84.6823L86.8826 83.3177ZM83.1809 85.8985C81.5776 86.6681 79.8749 87.2789 78.0711 87.7299L78.5562 89.6701C80.4858 89.1878 82.3164 88.5319 84.0464 87.7015L83.1809 85.8985ZM78.0296 87.7412C76.302 88.2531 74.7321 88.5 73.3137 88.5V90.5C74.9619 90.5 76.7254 90.2136 78.5978 89.6588L78.0296 87.7412ZM73.3137 88.5C70.555 88.5 68.1586 88.051 66.1042 87.1794L65.3231 89.0206C67.6687 90.0157 70.339 90.5 73.3137 90.5V88.5ZM66.1042 87.1794C64.1001 86.3292 62.2666 84.825 60.6164 82.6037L59.0109 83.7963C60.8275 86.2417 62.9273 88.0042 65.3231 89.0206L66.1042 87.1794ZM60.635 82.6296C59.0396 80.3321 57.4749 77.0579 55.9564 72.7664L54.071 73.4336C55.6191 77.8088 57.2544 81.2679 58.9923 83.7704L60.635 82.6296ZM55.9558 72.7648L50.1558 56.4648L48.2715 57.1352L54.0715 73.4352L55.9558 72.7648ZM48.7438 55.9173L42.5438 59.2173L43.4835 60.9827L49.6835 57.6827L48.7438 55.9173ZM42.0281 59.931C41.6269 62.2713 41.292 64.3807 41.0237 66.2586L43.0036 66.5414C43.2687 64.6859 43.6005 62.5953 43.9993 60.269L42.0281 59.931ZM41.0245 66.2535C40.7554 68.0695 40.6137 69.5265 40.6137 70.6H42.6137C42.6137 69.6735 42.7386 68.3305 43.0029 66.5465L41.0245 66.2535ZM40.6137 70.6C40.6137 74.0404 40.8493 76.9773 41.3331 79.3961L43.2943 79.0039C42.8447 76.7561 42.6137 73.9596 42.6137 70.6H40.6137ZM41.3388 79.4228C41.8906 81.8371 42.6931 83.9139 43.7657 85.63L45.4617 84.57C44.5342 83.0861 43.8034 81.2296 43.2885 78.9772L41.3388 79.4228ZM44.0137 84.3C40.1559 87.1933 36.2284 88.6 32.2137 88.6V90.6C36.7323 90.6 41.0714 89.0067 45.2137 85.9L44.0137 84.3Z" fill="#264DB1" mask="url(#path-1-outside-1_1_11)"/>
</g>
<defs>
<clipPath id="clip0_1_11">
<rect width="100" height="100" fill="white"/>
</clipPath>
</defs>
</svg>

<svg xmlns="http://www.w3.org/2000/svg" width="100" height="100" fill="none"><g clip-path="url(#a)"><mask id="b" width="71" height="78" x="19" y="13" fill="#000" maskUnits="userSpaceOnUse"><path fill="#fff" d="M19 13h71v78H19z"/><path d="M32.214 89.6c-4.467 0-7.634-1.267-9.5-3.8-1.8-2.6-2.7-6.5-2.7-11.7 0-3.333.533-8.333 1.6-15 1.133-6.733 2.7-15.633 4.7-26.7l-5.3-10.7c3.133-2 6.466-3.7 10-5.1 3.533-1.467 7.066-2.2 10.6-2.2 3.133 0 5.2.933 6.2 2.8 1 1.867 1.5 4.067 1.5 6.6 0 1.133-.234 3-.7 5.6-.4 2.533-.934 5.467-1.6 8.8-.6 3.333-1.234 6.733-1.9 10.2l4.7-3.9c4-3.333 7.433-6.767 10.3-10.3 2.866-3.533 4.3-7.033 4.3-10.5 0-1.733-.267-3.3-.8-4.7 4.933-3 9.6-4.5 14-4.5 3.533 0 6.033.933 7.5 2.8 1.533 1.8 2.3 4.2 2.3 7.2 0 3.267-1.534 6.833-4.6 10.7-3 3.867-8.1 7.867-15.3 12 1.133 3.6 2.4 7.3 3.8 11.1 1.466 3.733 3.066 7.3 4.8 10.7 1.733 3.4 3.566 6.433 5.5 9.1 1.933 2.6 3.933 4.567 6 5.9-.934 1-2.267 1.933-4 2.8a27.788 27.788 0 0 1-5.3 1.9c-1.8.533-3.467.8-5 .8-2.867 0-5.4-.467-7.6-1.4-2.2-.933-4.167-2.567-5.9-4.9-1.667-2.4-3.267-5.767-4.8-10.1l-5.8-16.3-6.2 3.3c-.4 2.333-.734 4.433-1 6.3-.267 1.8-.4 3.2-.4 4.2 0 3.4.233 6.267.7 8.6.533 2.333 1.3 4.3 2.3 5.9-4 3-8.134 4.5-12.4 4.5Z"/></mask><path fill="#264DB1" d="M32.214 89.6c-4.467 0-7.634-1.267-9.5-3.8-1.8-2.6-2.7-6.5-2.7-11.7 0-3.333.533-8.333 1.6-15 1.133-6.733 2.7-15.633 4.7-26.7l-5.3-10.7c3.133-2 6.466-3.7 10-5.1 3.533-1.467 7.066-2.2 10.6-2.2 3.133 0 5.2.933 6.2 2.8 1 1.867 1.5 4.067 1.5 6.6 0 1.133-.234 3-.7 5.6-.4 2.533-.934 5.467-1.6 8.8-.6 3.333-1.234 6.733-1.9 10.2l4.7-3.9c4-3.333 7.433-6.767 10.3-10.3 2.866-3.533 4.3-7.033 4.3-10.5 0-1.733-.267-3.3-.8-4.7 4.933-3 9.6-4.5 14-4.5 3.533 0 6.033.933 7.5 2.8 1.533 1.8 2.3 4.2 2.3 7.2 0 3.267-1.534 6.833-4.6 10.7-3 3.867-8.1 7.867-15.3 12 1.133 3.6 2.4 7.3 3.8 11.1 1.466 3.733 3.066 7.3 4.8 10.7 1.733 3.4 3.566 6.433 5.5 9.1 1.933 2.6 3.933 4.567 6 5.9-.934 1-2.267 1.933-4 2.8a27.788 27.788 0 0 1-5.3 1.9c-1.8.533-3.467.8-5 .8-2.867 0-5.4-.467-7.6-1.4-2.2-.933-4.167-2.567-5.9-4.9-1.667-2.4-3.267-5.767-4.8-10.1l-5.8-16.3-6.2 3.3c-.4 2.333-.734 4.433-1 6.3-.267 1.8-.4 3.2-.4 4.2 0 3.4.233 6.267.7 8.6.533 2.333 1.3 4.3 2.3 5.9-4 3-8.134 4.5-12.4 4.5Z"/><path fill="#264DB1" d="m22.714 85.8-.822.57.008.011.009.012.805-.593Zm-1.1-26.7-.986-.166-.002.008.988.158Zm4.7-26.7.984.178.059-.326-.147-.296-.896.444Zm-5.3-10.7-.538-.843-.757.483.399.804.896-.444Zm10-5.1.368.93.008-.003.007-.003-.383-.924Zm16.8.6.881-.472-.881.472Zm.8 12.2-.985-.177-.002.01-.001.011.988.156Zm-1.6 8.8-.98-.196-.003.01-.002.009.985.177Zm-1.9 10.2-.982-.189-.527 2.74 2.147-1.781-.638-.77Zm4.7-3.9.638.77.002-.002-.64-.768Zm10.3-10.3.776.63-.776-.63Zm3.5-15.2-.52-.854-.711.432.296.778.935-.356Zm21.5-1.7-.787.618.013.015.012.015.762-.648Zm-2.3 17.9-.784-.621-.006.008.79.613Zm-15.3 12-.498-.867-.698.4.242.767.954-.3Zm3.8 11.1-.939.346.004.01.004.01.93-.366Zm4.8 10.7.89-.454-.89.454Zm5.5 9.1-.81.587.007.01.803-.597Zm6 5.9.73.682.817-.874-1.005-.648-.542.84Zm-4 2.8.432.901.008-.003.007-.004-.447-.894Zm-5.3 1.9-.243-.97-.02.005-.021.006.284.959Zm-12.6-.6-.39.92.39-.92Zm-5.9-4.9-.822.57.01.014.009.012.803-.596Zm-4.8-10.1.942-.334v-.001l-.942.335Zm-5.8-16.3.942-.335-.389-1.092-1.023.544.47.883Zm-6.2 3.3-.47-.883-.433.23-.083.484.986.169Zm-1 6.3.989.146v-.005l-.99-.141Zm.3 12.8-.98.196.002.013.003.014.975-.223Zm2.3 5.9.6.8.735-.551-.487-.779-.848.53Zm-12.4 3.5c-4.29 0-7.088-1.212-8.695-3.393l-1.61 1.186c2.125 2.885 5.662 4.207 10.305 4.207v-2Zm-8.678-3.37c-1.631-2.355-2.522-6.014-2.522-11.13h-2c0 5.285.909 9.425 2.878 12.27l1.644-1.14ZM21.014 74.1c0-3.25.522-8.186 1.587-14.842l-1.975-.316c-1.068 6.677-1.612 11.742-1.612 15.158h2ZM22.6 59.266c1.132-6.728 2.698-15.623 4.698-26.688l-1.968-.356c-2 11.069-3.568 19.973-4.702 26.712l1.972.332Zm4.61-27.31-5.3-10.7-1.792.888 5.3 10.7 1.792-.888Zm-5.658-9.413a57.781 57.781 0 0 1 9.83-5.013l-.737-1.86a59.777 59.777 0 0 0-10.17 5.187l1.077 1.686Zm9.845-5.02c3.422-1.42 6.825-2.123 10.217-2.123v-2c-3.676 0-7.339.764-10.984 2.276l.767 1.848ZM41.614 15.4c2.96 0 4.569.873 5.318 2.272l1.763-.944c-1.25-2.334-3.775-3.328-7.081-3.328v2Zm5.318 2.272c.908 1.696 1.382 3.727 1.382 6.128h2c0-2.666-.527-5.034-1.619-7.072l-1.763.944Zm1.382 6.128c0 1.036-.218 2.825-.685 5.423l1.969.354c.467-2.603.716-4.546.716-5.777h-2Zm-.688 5.444a221.499 221.499 0 0 1-1.593 8.76l1.961.392c.669-3.343 1.205-6.29 1.607-8.84l-1.975-.312Zm-1.596 8.779c-.6 3.33-1.232 6.725-1.898 10.188l1.964.378c.667-3.47 1.301-6.874 1.902-10.212l-1.968-.354Zm-.278 11.147 4.7-3.9-1.277-1.54-4.7 3.9 1.277 1.54Zm4.702-3.902C54.497 41.9 57.977 38.42 60.89 34.83l-1.553-1.26c-2.82 3.476-6.206 6.864-10.164 10.162l1.28 1.536ZM60.89 34.83c2.966-3.655 4.524-7.37 4.524-11.13h-2c0 3.174-1.31 6.459-4.077 9.87l1.553 1.26Zm4.524-11.13c0-1.836-.283-3.526-.866-5.056l-1.869.712c.484 1.27.735 2.713.735 4.344h2Zm-1.28-3.846c4.824-2.933 9.312-4.354 13.48-4.354v-2c-4.632 0-9.478 1.58-14.52 4.646l1.04 1.708Zm13.48-4.354c3.38 0 5.515.892 6.713 2.418l1.573-1.236c-1.735-2.208-4.6-3.182-8.286-3.182v2Zm6.738 2.448c1.342 1.575 2.062 3.724 2.062 6.552h2c0-3.172-.814-5.823-2.54-7.849l-1.522 1.297Zm2.062 6.552c0 2.951-1.389 6.303-4.384 10.079l1.567 1.242c3.139-3.957 4.817-7.739 4.817-11.321h-2Zm-4.39 10.087c-2.884 3.716-7.853 7.638-15.008 11.746l.995 1.734c7.246-4.16 12.476-8.237 15.593-12.254l-1.58-1.226ZM66.56 47.5a245.721 245.721 0 0 0 3.815 11.146l1.877-.692A243.747 243.747 0 0 1 68.468 46.9l-1.908.6Zm3.823 11.166a121.772 121.772 0 0 0 4.84 10.788l1.782-.908a119.755 119.755 0 0 1-4.76-10.612l-1.862.732Zm4.84 10.788c1.753 3.44 3.613 6.518 5.581 9.233l1.62-1.174c-1.9-2.619-3.706-5.606-5.42-8.967l-1.781.908Zm5.588 9.243c1.984 2.667 4.067 4.728 6.26 6.143l1.085-1.68c-1.94-1.252-3.857-3.124-5.74-5.657l-1.605 1.194Zm6.072 4.62c-.826.886-2.049 1.755-3.716 2.589l.894 1.788c1.799-.9 3.243-1.897 4.284-3.012l-1.462-1.364ZM83.18 85.9a26.786 26.786 0 0 1-5.11 1.83l.485 1.941a28.776 28.776 0 0 0 5.49-1.969l-.865-1.802ZM78.03 87.74c-1.728.512-3.298.759-4.716.759v2c1.648 0 3.411-.286 5.284-.841l-.568-1.918Zm-4.716.759c-2.759 0-5.155-.449-7.21-1.32l-.78 1.84c2.345.996 5.015 1.48 7.99 1.48v-2Zm-7.21-1.32c-2.004-.85-3.837-2.355-5.488-4.576l-1.605 1.192c1.816 2.446 3.916 4.208 6.312 5.225l.781-1.842Zm-5.469-4.55c-1.595-2.298-3.16-5.572-4.679-9.864l-1.885.668c1.548 4.375 3.183 7.834 4.921 10.336l1.643-1.14Zm-4.68-9.865-5.8-16.3-1.883.67 5.8 16.3 1.884-.67Zm-7.211-16.848-6.2 3.3.94 1.766 6.2-3.3-.94-1.766Zm-6.716 4.014c-.401 2.34-.736 4.45-1.004 6.328l1.98.282c.265-1.855.596-3.946.995-6.272l-1.97-.338Zm-1.003 6.323c-.27 1.816-.411 3.272-.411 4.346h2c0-.926.125-2.27.389-4.053l-1.978-.293Zm-.411 4.346c0 3.44.235 6.377.72 8.796l1.96-.392c-.45-2.248-.68-5.044-.68-8.404h-2Zm.725 8.823c.552 2.414 1.354 4.49 2.427 6.207l1.696-1.06c-.928-1.484-1.659-3.34-2.174-5.593l-1.95.446Zm2.675 4.877c-3.858 2.893-7.786 4.3-11.8 4.3v2c4.518 0 8.857-1.593 13-4.7l-1.2-1.6Z" mask="url(#b)"/></g><defs><clipPath id="a"><path fill="#fff" d="M0 0h100v100H0z"/></clipPath></defs></svg>
